X:1
T:6 Gesänge, Op.6
T:Wasserfahrt
T:6 Gesänge, Op.6 
T:1. Wasserfahrt Waterparty
T:Robert Franz
T:Hoffman von Fallersleben
T:OpenScore (CC0)
T:OpenScore (CC0)
C:Robert Franz
Z:August Heinrich Hoffman von Fallersleben
Z:OpenScore (CC0)
%%score 1 { ( 2 4 ) | ( 3 5 ) }
L:1/8
Q:1/4=116
M:3/8
K:F#
V:1 treble nm="Singstimme\nVoice"
V:2 treble nm="Pianoforte"
V:4 treble 
V:3 bass 
V:5 bass 
V:1
"^Leicht und zart""^Allegretto grazioso"!p! A3/2 B/ c | d2 c | (f3/2 c/) d | c2 A | G3/2 A/ B | %5
w: Ü- ber die|hel- len|fun- keln- den|Wel- len|tan- zen Li-|
w: O'er the bright|ri- ver,|spark- * ling|quiv- er,|my- ri- ad|
 e3/2 d/ B | A3/2 B/ c |!<(! c3-!<)! |!>(! c3- | c2!>)! z |!p! A3/2 ^B/ c | d2 A | G3/2 A/ =B | %13
w: bel- len den|lu- sti- gen|Tanz;|_||fröh- lich und|mun- ter,|auf und hin-|
w: mid- ges in|fro- lic- some|dance;|_||joy- ous and|mer- ry,|up and down|
 c2 G | c3/2 B/ A | e3/2 d/ B | A3/2 B/ c |!<(! c3-!<)! |!>(! c3- | c2!>)! z | z3 | z3 | z3 | z3 | %24
w: un- ter,|schwe- ben und|we- ben im|son- ni- gen|Glanz.|_||||||
w: hur- ry,|shin- ing, en-|twin- ing in|sun- ny beam's|glance.|_||||||
!p! A3/2 B/ c | d2 c | f3/2 c/ d | c2 A | G3/2 A/ B | e3/2 d/ B | A3/2 B/ c |!<(! c3-!<)! | %32
w: Küh- len- de|Lüf- te,|lieb- li- che|Düf- te,|won- ni- ges|Wet- ter und|Vo- gel- ge-|\- sang;|
w: Sweet flow'rs are|spring- ing,|wood birds are|sing- ing,|bree- zes come|la- den with|fra- grance and|song,|
!>(! c3- | c2!>)! z | A3/2 ^B/ c | d2 A | G3/2 A/ =B | c2 G | c3/2 B/ A | e3/2 d/ B | A3/2 B/ c | %41
w: _||gleich den Li-|bel- len,|ü- ber den|Wel- len|schwebt un- ser|Na- chen  das|U- fer ent-|
w: _||just like the|mid- ges,|by the green|hed- ges|skims our light|ves- sel the|bright shore a-|
!<(! c3-!<)! |!>(! c3- | c2!>)! z | z3 | z3 | z3 | z3 |!p! A3/2 B/ c | d2 c | f3/2 c/ d | (c2 A) | %52
w: lang.|_||||||Blu- men und|Bäu- me|flie- gen wie|Träu- me,|
w: long.|_||||||Bush- es and|flow- ers|fly like the|hours, _|
 F3/2 G/ A | B3/2 c/ d | A3/2 B/ c |!>(! c3- | c3- | c2!>)! z |!p! A3/2 ^B/ c | d2 A | G3/2 A/ =B | %61
w: Al- les ent-|ei- let und|schwin- det da-|\- hin;|_||doch im Ent-|ei- len|las- sen wir|
w: quick dis- ap-|pear- ing and|left far be-|\- hind,|_||but as we|hur- ry,|let a- while|
 c2 G | c3/2 B/ A | e3/2 d/ B | A3/2 B/ c |!<(! c3-!<)! |!>(! c3- | c2!>)! z | z3 | z3 | z3 | z3 |] %72
w: wei- len,|wei- len im|Her- zen  den|fröh- li- chen|Sinn.|_||||||
w: tar- ry,|joy in our|bos- om and|peace in our|mind.|_||||||
V:2
!p! ([FA]>[FB][Fc] | [Fd]2 [Fc]) | (!arpeggio![Fdf]>[FAc][FBd] | [Fc]2 [FA]) | %4
 [G,DF]>[G,DF][G,DF] | [G,DF]>[G,DF][G,DF] | [B,E]>[B,E][B,E] | ([A,F]>[B,G][CA]) | %8
 ([G,E]>[A,F][B,G]) | [A,F]2 z |!p! [CE]>[CE][CE] | [CF]2 [CF] | [B,E]>[B,E][B,E] | [B,E]2 [B,E] | %14
!p!!<(! [CF]>[CF][CF]!<)! |!>(! [G,DF]>[G,DF][G,DF]!>)! | [B,E]>[B,E][B,E] | ([A,F]>[B,G][CA]) | %18
 ([G,E]>[A,F][B,G]) | [A,F]2 z |!p!!<(! [FG]>[FG][FG]!<)! |!>(! [FG]>[FG][FG]!>)! | %22
 ([CF]!arpeggio![CGc])([CE] | [CF]2) z |!p!!<(! ([FA]>[FB]!<)![Fc] | [Fdf]2 [Fc]) | %26
 (!arpeggio![FBd]>[FAc][FBd] | [Fc]2 [FA]) | [G,DF]>[G,DF][G,DF] | [G,DF]>[G,DF][G,DF] | %30
 [B,E]>[B,E][B,E] | ([A,F]>[B,G][CA]) | ([G,E]>[A,F][B,G]) | [A,F]2 z |!p! [CE]>[CE][CE] | %35
 [CF]2 [CF] | [B,E]>[B,E][B,E] | [B,E]2 [B,E] |!<(! [CF]>[CF]!<)![CF] | %39
!>(! [G,DF]>[G,DF][G,DF]!>)! | [B,E]>[B,E][B,E] | ([A,F]>[B,G][CA]) | ([G,E]>[A,F][B,G]) | F2 z | %44
!p!!<(! ([FG]>[FG][FG]!<)! | [FG]>!>(![FG][FG]!>)! | ([CF]!arpeggio![CGc])[CE] | [CF]2) z | %48
!p!!<(! ([FA]>[FB][Fc]!<)! |!>(! [Fdf]2 [Fc])!>)! | (!arpeggio![Fdf]>[FAc][FBd] | [Fc]2 [FA]) | %52
"^il canto marc." z3/2 [DF]/[DF] | z3/2 [FB]/[FB] | z3/2 [EG]/[EG] | ([A,F]>[B,G][CA]) | %56
 ([G,E]>[A,F][B,G]) | F2 z | (c3 | F>GA) | (B3 | E>FG) |!p!!<(! [CF]>[CF][CF]!<)! | %63
!>(! [G,DF]>[G,DF][G,DF]!>)! | [B,E]>[B,E][B,E] | ([A,F]>[B,G][CA]) | ([G,E]>[A,F][B,G]) | %67
 [A,F]2 z |!p!"^espress."!<(! ([FG]>[FG][FG]!<)! | [FG]>!>(![FG][FG]!>)! | %70
 ([Fcf]!arpeggio![Gcg])[Ece] | .[Fcf]2) z |] %72
V:3
 ([F,C]>[G,C][A,C] | [B,C]2 [A,C]) |!ped! (!arpeggio![B,D]>!ped-up![A,C][B,D] | %3
!ped! [A,C]2 [F,C])!ped-up! |!ped! B,,3 | B,,3!ped-up! |!ped! C,3!ped-up! |!ped! (C,3!ped-up! | %8
!ped! C,,3!ped-up! | F,,2) z |!ped! [E,A,]>[E,A,][E,A,]!ped-up! | [D,A,]2 [D,A,] | %12
!ped! [D,G,]>[D,G,][D,G,]!ped-up! | [C,G,]2 [C,G,] |!ped! (A,,3!ped-up! |!ped! B,,3!ped-up! | %16
!ped! C,3)!ped-up! |!ped! (C,3!ped-up! |!ped! C,,3!ped-up! | F,,2) z |!ped! G,>A,B,!ped-up! | %21
!ped! E>DB,!ped-up! | A,B,G, | A,2 z | ([F,C]>[G,C][A,C] | [B,C]2 [A,C]) | %26
!ped! (!arpeggio![B,D]>!ped-up![A,C][B,D] |!ped! [A,C]2 [F,C])!ped-up! |!ped! B,,3 | B,,3!ped-up! | %30
!ped! C,3!ped-up! |!ped! (C,3!ped-up! |!ped! C,,3!ped-up! | F,,2) z | %34
!ped! [E,A,]>[E,A,][E,A,]!ped-up! |!ped! [D,A,]2 [D,A,]!ped-up! | %36
!ped! [D,G,]>[D,G,][D,G,]!ped-up! |!ped! [C,G,]2 [C,G,]!ped-up! |!ped! (A,,3!ped-up! | %39
!ped! B,,3!ped-up! |!ped! C,3)!ped-up! |!ped! (C,3!ped-up! |!ped! C,,3!ped-up! | F,,2) z | %44
!ped! G,>A,B,!ped-up! |!ped! E>DB,!ped-up! |!ped! A,B,G,!ped-up! | A,2 z | ([F,C]>[G,C][A,C] | %49
 [B,C]2 [A,C]) |!ped! (!arpeggio![B,D]>!ped-up![A,C][B,D] |!ped! [A,C]2 [F,C])!ped-up! | %52
!ped! D,3!ped-up! |!ped! G,,3!ped-up! |!ped! C,3!ped-up! |!ped! (C,3!ped-up! |!ped! C,,3!ped-up! | %57
 F,,2) z |!ped! [E,A,]>[E,A,][E,A,]!ped-up! |!ped! [D,A,]>[D,G,][D,F,]!ped-up! | %60
!ped! [D,G,]>[D,G,][D,G,]!ped-up! |!ped! [C,G,]>[C,F,][C,E,]!ped-up! |!ped! (A,,3!ped-up! | %63
!ped! B,,3!ped-up! |!ped! C,3)!ped-up! |!ped! (C,3!ped-up! |!ped! C,,3!ped-up! | F,,2) z | %68
!ped! G,>A,B,!ped-up! |!ped! !arpeggio!E>DB,!ped-up! |!ped! A,B,!arpeggio!G,!ped-up! | A,2 z |] %72
V:4
 x3 | x3 | x3 | x3 | x3 | x3 | x3 | F3 | C3 | A,2 x | x3 | x3 | x3 | x3 | x3 | x3 | x3 | F3 | C3 | %19
 A,2 x | x3 | x3 | x3 | x3 | x3 | x3 | x3 | x3 | x3 | x3 | x3 | F3 | C3 | A,2 x | x3 | x3 | x3 | %37
 x3 | x3 | x3 | x3 | F3 | C3 | A,2 x | x3 | x3 | x3 | x3 | x3 | x3 | x3 | x3 | (A,3 | D3 | C2 B,) | %55
 F3 | C3 | A,2 x | z3/2 [EG]/[EG] | C>CC | z3/2 [B,E]/[B,E] | B,>B,B, | x3 | x3 | x3 | F3 | C3 | %67
 A,2 x | x3 | x3 | x3 | x3 |] %72
V:5
 x3 | x3 | x3 | x3 | x3 | x3 | x3 | x3 | x3 | x3 | x3 | x3 | x3 | x3 | x3 | x3 | x3 | x3 | x3 | %19
 x3 | (B,,3- | B,,3 | C,3 | F,,2) x | x3 | x3 | x3 | x3 | x3 | x3 | x3 | x3 | x3 | x3 | x3 | x3 | %36
 x3 | x3 | x3 | x3 | x3 | x3 | x3 | x3 | (B,,3- | B,,3 | C,3 | F,,2) x | x3 | x3 | x3 | x3 | x3 | %53
 x3 | x3 | x3 | x3 | x3 | x3 | x3 | x3 | x3 | x3 | x3 | x3 | x3 | x3 | x3 | B,,3 | !arpeggio!G,,3 | %70
 C,2 !arpeggio!C,, | .F,,2 x |] %72

